X:1
T:Title
%%score { ( 1 3 ) | ( 2 4 ) }
L:1/8
Q:1/4=100
M:4/4
K:G
V:1 treble nm="Grand Piano"
V:3 treble 
V:2 bass 
V:4 bass 
V:1
 [B,D][CE][B,D][CE] [B,D]2 Bc | [EB]2 [A,EA]2 [CE]2 [A,EG]2 | z4 [Dd]2 c2 | [DB]6 z2 | %4
w: I.~H.~Meredith * * * * * *||||
 [GB][FA][EG][FA] [GB]2 [Ge][Ge] | [B,GB]3 [CFA] [B,EG]2 [^CGB]2 | [DA]2 [DAd]2 [EGd]2 [EG^c]2 | %7
w: |||
[M:9/8] [Fd]6- [Fd] z z |[M:4/4] [DB]2 [EB]2 [DB]2 [GB]>c | [Bd]4 z4 | [Bd]2 [Ac]2 [Dc]2 [Ac]2 | %11
w: ||||
 [GB]6 z2 | [Ec]2 [Fc]2 [Gc]2 [Fc]>c | [DB]4 [GB]4 | [A^c]2 [Ec]2 [Fc]2 [Gc]2 | [Ac]6[K:bass] z2 | %16
w: |||||
 [DB]2 [EB]2 [DB]2 [GB]>c | [Bd]4 z4 | [^Ge]2 [Ee]2 [F^d]2 [G=d]2 | [Ac]6 ^c2 | %20
w: ||||
 [Bd]2 [Dd]2 [Bd]2 [ce]d | z2 ^c4 z2 | [Bd]4 [Ac]4 | [GB]6 z2 |] %24
w: ||||
V:2
 [G,,G,]2 [G,,G,]2 [G,,G,]2 [G,D][G,E] | [C,G,]2 C,2 C,2 C,2 | z4 z2 D2 | G,2 z2 A,2 _B,2 | %4
 [E,B,]2 [E,B,]2 [E,E]2 [E,B,][E,B,] | E,3 D, E,2 E,2 | F,2 F,2 E,2 A,2 |[M:9/8] z3 z C2- C z z | %8
[M:4/4] z4 z2 [D,G,B,]2 | G,,2 D,2 G,,2 [D,G,B,]2 | D,,2 [D,F,C]2 D,,2 [D,F,C]2 | %11
 [G,,G,]E,D,B,, G,,2 A,,B,, | z4 z2 [E,G,C]2 | G,,2 D,2 G,,2 D,2 | A,,2 [E,A,]2 A,,2 [E,A,]2 | %15
 D,,2 D,2 F,2 D,2 | z4 z2 [D,G,B,]2 | G,,2 D,2 [G,,G,]2 [F,,F,]2 | %18
 [E,,E,]2 [E,^G,]2 [E,A,]2 [E,B,]2 | [A,,A,]E,C,E, A,,2[K:treble] _B2 | z4 z2 [D,G,B,]2[K:treble] | %21
 z A E2- [E,E]2 G2 | D,,2 D,2 D,,2 D,2 | [G,,G,]E,D,B,, G,,2 z2 |] %24
V:3
 x8 | x8 | [A,DF]2 [F,D]2 z G, z F, | x8 | x8 | x8 | x8 |[M:9/8] .D6 z3 |[M:4/4] x8 | %9
 z2 [G,B,]2 [Bd]2 [ce]2 | x8 | x8 | x8 | z2 [G,B,]2 z2 [G,B,]2 | x8 | %15
 z2[K:bass] [F,A,]2 [A,C]2 [F,A,]2 | x8 | z2 [G,B,]2 [Bd]2 [A^d]2 | x8 | x8 | x8 | %21
 [B^c]c z2 A,2 c2 | z2 [G,B,]2 z2 [F,C]2 | x8 |] %24
V:4
 x8 | x8 | D,2 D,2 [D,F,]E,[F,A,]D, | z2 G,4 z2 | x8 | x8 | x8 |[M:9/8] D,6- D,/ z/ z z | %8
[M:4/4] G,,2 [D,G,B,]2 G,,2 z z/ A/ | x8 | x8 | x8 | C,2 [E,G,C]2 C,2 z z/ E/ | x8 | x8 | x8 | %16
 G,,2 [D,G,B,]2 G,,2 z z/ A/ | x8 | x8 | x6[K:treble] x2 | G,,2 [D,G,B,]2 G,,2 z[K:treble] B | %21
 A,,2 [E,A,]2 z4 | x8 | x8 |] %24

